flaticon/user-interface/capitalize.svg

<svg xmlns="http://www.w3.org/2000/svg" width="32" height="32" viewBox="0 0 24 24">
    <path d="M 0 0.199219 L 0 23.800781 L 24 23.800781 L 24 0.199219 Z M 23.199219 23 L 0.800781 23 L 0.800781 1 L 23.199219 1 Z M 23.199219 23"/>
    <path d="M 5.199219 7 C 5.421875 7 5.601562 6.820312 5.601562 6.601562 L 5.601562 5.398438 L 11.601562 5.398438 L 11.601562 19 L 9.601562 19 C 9.378906 19 9.199219 19.179688 9.199219 19.398438 C 9.199219 19.621094 9.378906 19.800781 9.601562 19.800781 L 14.398438 19.800781 C 14.621094 19.800781 14.800781 19.621094 14.800781 19.398438 C 14.800781 19.179688 14.621094 19 14.398438 19 L 12.398438 19 L 12.398438 5.398438 L 18.398438 5.398438 L 18.398438 6.601562 C 18.398438 6.820312 18.578125 7 18.800781 7 C 19.019531 7 19.199219 6.820312 19.199219 6.601562 L 19.199219 5 C 19.199219 4.777344 19.019531 4.601562 18.800781 4.601562 L 5.199219 4.601562 C 4.980469 4.601562 4.800781 4.777344 4.800781 5 L 4.800781 6.601562 C 4.800781 6.820312 4.980469 7 5.199219 7 Z M 5.199219 7"/>
</svg>

<svg xmlns="http://www.w3.org/2000/svg" width="32" height="32" viewBox="0 0 24 24">
    <path d="M0 .2v23.6h24V.2zM23.2 23H.8V1h22.4zm0 0"/>
    <path d="M5.2 7c.222 0 .402-.18.402-.398V5.398h6V19h-2a.401.401 0 1 0 0 .8h4.796a.401.401 0 0 0 0-.8h-2V5.398h6v1.204a.401.401 0 0 0 .801 0V5a.398.398 0 0 0-.398-.398H5.199A.398.398 0 0 0 4.801 5v1.602A.4.4 0 0 0 5.199 7zm0 0"/>
</svg>
